icons/core/email.svg

<svg width="32" height="32" viewBox="0 0 32 32" fill="none" xmlns="http://www.w3.org/2000/svg">
<path fill-rule="evenodd" clip-rule="evenodd" d="M4 6C2.89543 6 2 6.89543 2 8V24C2 25.1046 2.89543 26 4 26H28C29.1046 26 30 25.1046 30 24V8C30 6.89543 29.1046 6 28 6H4ZM27.4569 8L4.54308 8L16 15.7907L27.4569 8ZM4 10.0493V24H28V10.0493L16.8435 17.6357C16.3344 17.9819 15.6656 17.9819 15.1565 17.6357L4 10.0493Z" fill="black"/>
</svg>

<svg viewBox="0 0 32 32" xmlns="http://www.w3.org/2000/svg"><path fill-rule="evenodd" d="M4 6a2 2 0 00-2 2v16a2 2 0 002 2h24a2 2 0 002-2V8a2 2 0 00-2-2H4zm23.457 2H4.543L16 15.79 27.457 8zM4 10.05V24h24V10.05l-11.157 7.586a1.5 1.5 0 01-1.687 0L4 10.049z"/></svg>
